X:1
T:Cours de contrepoint et de fugue
T:Contrepoints à trois voix
T:Luigi Cherubini 1760-1842 
%%score [ 1 2 3 ]
L:1/8
Q:1/2=120
M:2/2
K:C
V:1 treble nm="Piano,  "
V:2 bass nm="Piano"
V:3 bass nm="Piano"
V:1
"^1" E8 | C8 | F8 | D8 | C8 | C8 | E8 | F8 | C8 | C8 | D8 | B,8 | C8 |][M:2/2]"^2" C8 | E8 | D8 | %16
 G8 | E8 | A8 | G8 | F8 | E8 | A8 | F8 | D8 | C8 |][M:2/2][K:treble]"^3" G8 | G8 | A8 | c8 | c8 | %31
 c8 | e8 | B8 | c8 | c8 | A8 | G8 | G8 |][M:2/2]"^4" c8 | G8 | A8 | B8 | c8 | c8 | _B8 | A8 | c8 | %48
 c8 | c8 | B8 | c8 |][M:2/2][K:treble]"^5" C8 | E8 | D8 | G8 | E8 | A8 | G8 | F8 | E8 | A8 | F8 | %63
 D8 | C8 |][M:2/2][K:treble]"^6" z4 G4 | c4 A4 | G4 d4 | B4 A4 | G4 c4 | F4 f4 | e4 c4 | A4 B4 | %73
 c4 A4 | c4 C4 | c4 A4 | G4 F4 | E8 |][K:F][M:2/2][K:treble]"^7" z2 F2 D2 F2 | A2 D2 ^C2 D2 | %80
 E2 F2 G2 E2 | F2 A2 F2 E2 | D2 C2 D2 E2 | F2 A2 G2 F2 | E2 D2 E2 F2 | G2 E2 F2 G2 | A2 F2 D2 A,2 | %87
 =B,2 A,2 B,2 ^C2 | D8 |][M:2/2]"^8" D8 | F8 | E8 | D8 | G8 | F8 | A8 | G8 | F8 | E8 | D8 |] %100
[M:2/2][K:treble]"^9" A8 | A8 | A8 | A8 | c8 | c8 | c8 | d8 | A8 | ^c8 | d8 |] %111
[M:2/2][K:treble]"^10" z4 F4- | F4 E4- | E4 D4- | D4 F4- | F4 G4- | G4 A4- | A4 F4- | F4 E4- | %119
 E4 D4- | D4 F4- | F4 E4 | F8 |][M:2/2][K:treble]"^11" f8 | B8 | c8 | c8 | F8 | G8 | A8 | G8 | c8 | %132
 A8 | B8 | A8 |][M:2/2]"^12" F8 | G8 | A8 | F8 | D8 | E8 | F8 | c8 | A8 | F8 | G8 | F8 |] %147
[M:2/2][K:treble]"^13" z4 F4- | F4 E4- | E4 D4- | D4 F4- | F4 G4- | G4 A4- | A4 F4- | F4 E4- | %155
 E4 D4- | D4 F4- | F4 E4 | F8 |][M:2/2]"^14" z4 F4- | F4 E4- | E4 D4- | D4 F4- | F4 G4- | G4 A4- | %165
 A4 F4- | F4 E4- | E4 D4- | D4 F4- | F4 E4 | F8 |][M:2/2][K:treble]"^15" z4 A4- | A2 F2 A2 =B2 | %173
 c2 G2 c4- | c2 =BA B4- | B2 G2 =B2 ^c2 | d2 f2 e2 d2 | c2 F2 f4- | f2 ed e4- | e2 A2 d4- | %180
 d4 ^c4 | d8 |][M:2/2]"^16" z8 | z4 d4 | c4 A4 | B4 d4 | c4 B4 | A4 d4 | c4 C4 | z4 c4 | A4 B4 | %191
 G4 A4 | ^F8 |][M:2/2][K:treble]"^17" D8 | F8 | E8 | D8 | G8 | F8 | A8 | G8 | F8 | E8 | D8 |] %204
V:2
 G,8 | G,8 | A,8 | B,8 | G,8 | F,8 | _B,8 | A,8 | G,8 | F,8 | D,8 | F,8 | E,8 |][M:2/2] C8 | C8 | %15
 B,8 | E8 | C8 | F8 | E8 | C8 | C8 | C8 | C,8 | G,8 | G,8 |][M:2/2][K:treble] C8 | E8 | D8 | G8 | %30
 E8 | A8 | G8 | F8 | E8 | A8 | F8 | D8 | C8 |][M:2/2] z4 G,4 | C4 E4 | F4 E4 | D4 B,4 | G,4 G4 | %44
 F4 C4 | D4 E4 | F4 D4 | G4 E4 | F4 G4 | A4 G4 | F4 D4 | E8 |][M:2/2][K:bass] C8 | C8 | B,8 | B,8 | %56
 C8 | C8 | C8 | A,8 | C8 | C8 | D8 | B,8 | G,8 |][M:2/2][K:treble] C8 | E8 | D8 | G8 | E8 | A8 | %71
 G8 | F8 | E8 | A8 | F8 | D8 | C8 |][K:F][M:2/2][K:bass] A,8 | A,8 | ^C8 | D8 | B,8 | A,8 | C8 | %85
 B,8 | A,8 | G,8 | ^F,8 |][M:2/2] z2 A,2 D2 B,2 | A,2 G,2 A,2 F,2 | A,2 E,2 A,2 G,2 | %92
 F,2 G,2 A,2 D2 | C2 D2 C2 B,2 | A,2 G,2 A,2 B,2 | C2 D2 E2 F2 | E2 D2 C2 B,2 | A,2 =B,2 ^C2 D2 | %98
 ^C2 A,2 =B,2 C2 | D8 |][M:2/2][K:treble] D8 | F8 | E8 | D8 | G8 | F8 | A8 | G8 | F8 | E8 | D8 |] %111
[M:2/2][K:bass] F,8 | G,8 | A,8 | F,8 | D,8 | E,8 | F,8 | C8 | A,8 | F,8 | G,8 | F,8 |] %123
[M:2/2][K:treble] z4 F4- | F4 E4- | E4 F4- | F4 A4- | A4 D4- | D4 C4- | C4 F4- | F4 E4- | E4 C4- | %132
 C4 D4- | D4 E4 | F8 |][M:2/2][K:bass] F8 | C8 | F8 | C8 | F,8 | G,8 | A,8 | G,8 | F,8 | A,8 | C8 | %146
 A,8 |][M:2/2][K:bass] F,8 | G,8 | A,8 | F,8 | D,8 | E,8 | F,8 | C8 | A,8 | F,8 | G,8 | F,8 |] %159
[M:2/2] F,8 | G,8 | A,8 | F,8 | D,8 | E,8 | F,8 | C8 | A,8 | F,8 | G,8 | F,8 |] %171
[M:2/2][K:treble] D8 | F8 | E8 | D8 | G8 | F8 | A8 | G8 | F8 | E8 | D8 |][M:2/2] D8 | F8 | E8 | %185
 D8 | G8 | F8 | A8 | G8 | F8 | E8 | D8 |][M:2/2][K:treble] z4 D4- | D2 A,G, A,2 =B,2 | C2 G,2 C4- | %196
 C4 =B,4- | B,2 G,A, =B,2 ^C2 | D2 A,2 D4- | D2 C2 F4- | F2 ED E4- | E2 A,2 D4- | D4 ^C4 | D8 |] %204
V:3
 C,8 | E,8 | D,8 | G,8 | E,8 | A,8 | G,8 | F,8 | E,8 | A,8 | F,8 | D,8 | C,8 |][M:2/2] C8 | C,8 | %15
 G,8 | E,8 | A,8 | F,8 | C8 | A,8 | A,,8 | F,,8 | A,,8 | B,,8 | C,8 |][M:2/2][K:bass] C8 | C,8 | %28
 F,8 | E,8 | A,8 | F,8 | C8 | D8 | C8 | F,8 | A,8 | B,8 | C8 |][M:2/2][K:bass] C,8 | E,8 | D,8 | %42
 G,8 | E,8 | A,8 | G,8 | F,8 | E,8 | A,8 | F,8 | D,8 | C,8 |][M:2/2] z4 C4 | C,4 E,4 | G,4 F,4 | %55
 E,4 D,4 | C,4 B,,4 | A,,4 C,4 | E,4 C,4 | F,4 G,4 | A,4 G,4 | F,4 E,4 | D,4 F,4 | G,4 G,,4 | %64
 C,8 |][M:2/2][K:bass] C8 | A,8 | B,8 | G,8 | C8 | A,8 | C8 | D8 | C8 | F,8 | A,8 | B,8 | C8 |] %78
[K:F][M:2/2][K:bass] D,8 | F,8 | E,8 | D,8 | G,8 | F,8 | A,8 | G,8 | F,8 | E,8 | D,8 |] %89
[M:2/2] D,8 | D,8 | ^C,8 | D,8 | E,8 | F,8 | F,,8 | C,8 | D,8 | A,8 | D,8 |] %100
[M:2/2] z2 D,2 F,2 E,2 | D,2 F,2 E,2 D,2 | ^C,2 A,,2 A,2 G,2 | F,2 E,2 F,2 D,2 | E,2 C,2 C2 B,2 | %105
 A,2 B,2 A,2 G,2 | F,2 E,2 D,2 C,2 | B,,2 A,,2 B,,2 C,2 | D,2 E,2 F,2 G,2 | A,2 G,2 A,2 A,,2 | %110
 D,8 |][M:2/2] F,8 | C,8 | F,8 | D,8 | B,,8 | C,8 | D,8 | A,8 | F,8 | D,8 | C,8 | F,,8 |] %123
[M:2/2] F,8 | G,8 | A,8 | F,8 | D,8 | E,8 | F,8 | C8 | A,8 | F,8 | G,8 | F,8 |][M:2/2] z4 F,4- | %136
 F,4 E,4 | D,4 F,4- | F,4 A,4- | A,4 D,4- | D,4 C,4 | z4 F,4- | F,4 E,4- | E,4 D,4- | D,4 F,4- | %145
 F,4 E,4 | F,8 |][M:2/2] z8 | z4 C,4 | F,,4 F,4 | D,4 A,,4 | B,,4 G,,4 | C,4 A,,4 | D,4 A,,4 | %154
 A,4 G,4 | F,4 F,,4 | B,,4 D,4 | C,8 | F,,8 |][M:2/2] z2 F,,2 G,,2 A,,2 | B,,2 A,,2 G,,2 C,2 | %161
 F,2 G,2 F,2 E,2 | D,2 C,2 D,2 A,,2 | B,,2 A,,2 B,,2 G,,2 | C,2 B,,2 C,2 A,,2 | D,2 C,2 D,2 F,2 | %166
 A,2 A,,2 C,2 E,2 | F,2 G,2 F,2 E,2 | D,2 F,2 D,2 C,2 | B,,2 A,,2 G,,2 C,2 | F,,8 |] %171
[M:2/2][K:bass] D,8 | D8 | C8 | G,8 | E,8 | D,8 | F,8 | C8 | D8 | A,8 | D,8 |] %182
[M:2/2][K:bass] z4 D,4- | D,2 E,2 F,2 G,2 | A,2 E,2 A,4- | A,4 G,2 F,2 | E,2 D,2 E,2 C,2 | %187
 D,2 E,2 F,4- | F,2 C,2 F,4- | F,4 E,4- | E,2 A,,2 D,4- | D,4 ^C,4 | D,8 |][M:2/2] z8 | z4 D,4 | %195
 C,4 E,2 F,2 | G,6 F,2 | E,8 | D,2 ^C,2 D,2 E,2 | F,4 A,2 B,2 | C4 C,4 | D,4 F,2 G,2 | A,4 A,,4 | %203
 D,8 |] %204

